material/.icons/material/shield-remove-outline.svg

<svg xmlns="http://www.w3.org/2000/svg" viewBox="0 0 24 24"><path d="M19.43 19l2.07 2.11-1.38 1.39-2.09-2.09-2.12 2.12-1.41-1.42L16.61 19l-2.11-2.14 1.38-1.39L18 17.59l2.12-2.12 1.43 1.43-2.12 2.1M21 11c0 .9-.1 1.78-.29 2.65-.58-.3-1.21-.5-1.9-.6.12-.6.19-1.22.19-1.83V6.3l-7-3.12L5 6.3v4.92C5 15.54 8.25 20 12 21l.31-.09c.19.62.52 1.2.91 1.71L12 23c-5.16-1.26-9-6.45-9-12V5l9-4 9 4v6z"/></svg>

<?xml version="1.0" encoding="UTF-8"?><!DOCTYPE svg PUBLIC "-//W3C//DTD SVG 1.1//EN" "http://www.w3.org/Graphics/SVG/1.1/DTD/svg11.dtd"><svg xmlns="http://www.w3.org/2000/svg" xmlns:xlink="http://www.w3.org/1999/xlink" version="1.1" id="mdi-shield-remove-outline" width="24" height="24" viewBox="0 0 24 24"><path d="M19.43,19L21.5,21.11L20.12,22.5L18.03,20.41L15.91,22.53L14.5,21.11L16.61,19L14.5,16.86L15.88,15.47L18,17.59L20.12,15.47L21.55,16.9L19.43,19M21,11C21,11.9 20.9,12.78 20.71,13.65C20.13,13.35 19.5,13.15 18.81,13.05C18.93,12.45 19,11.83 19,11.22V6.3L12,3.18L5,6.3V11.22C5,15.54 8.25,20 12,21L12.31,20.91C12.5,21.53 12.83,22.11 13.22,22.62L12,23C6.84,21.74 3,16.55 3,11V5L12,1L21,5V11Z" /></svg>
